X: 43403
T: Xesus And Felisa
R: reel
M: 4/4
K: Bminor
|:F^E|FBBc defa|efed c2 dc|BGGF G2 B/c/d|1 cAA^G A2:|2 cBB^A B2||
|:de|f3 e faaf|efed c2 A=c|BGGF G2 Bd|1 cAA^G A2:|2 cBB^A B2||
|:ag|fBB^A B2 eg|gffe edde|eAA^G Aceg|1 gffb ba:|2 gffd B2||

